material/.icons/material/calendar-import.svg

<svg xmlns="http://www.w3.org/2000/svg" viewBox="0 0 24 24"><path d="M12 12l-4 4h3v6h2v-6h3m3-12h-1V2h-2v2H8V2H6v2H5a2 2 0 00-2 2v14a2 2 0 002 2h4v-2H5V9h14v11h-4v2h4a2 2 0 002-2V6a2 2 0 00-2-2z"/></svg>

<?xml version="1.0" encoding="UTF-8"?><!DOCTYPE svg PUBLIC "-//W3C//DTD SVG 1.1//EN" "http://www.w3.org/Graphics/SVG/1.1/DTD/svg11.dtd"><svg xmlns="http://www.w3.org/2000/svg" xmlns:xlink="http://www.w3.org/1999/xlink" version="1.1" id="mdi-calendar-import" width="24" height="24" viewBox="0 0 24 24"><path d="M12,12L8,16H11V22H13V16H16M19,4H18V2H16V4H8V2H6V4H5A2,2 0 0,0 3,6V20A2,2 0 0,0 5,22H9V20H5V9H19V20H15V22H19A2,2 0 0,0 21,20V6A2,2 0 0,0 19,4Z" /></svg>
